X:102
T:Paddy Faheys
R:Reel
S:Maire O'Keeffe, Kerry (fiddle)
D:Session tape - Milltown Malbay 1991
H:Same tune as 78, but starts on a different part
H:(the defining part), and is more 'session friendly'.
Z:Bernie Stocks
M:4/4
K:D
e {afe}f2 e {afe}f2 gf | eAcA ~g3e |{afe}f2de {afe}f2af | gAcd edde |
e {afe}f2 e {afe}f2 gf | eAcA ~g3e |{afe}f2de {afe}f2ed | cAGE {G}EDD2 :|
K:G\
DEFA d3B | {d}cAAG EFGE | DEFA dfed | cAGE {G}EDD2 |
DEFA d3B | {d}cAAG EFGB | Ac~c2 ~d3B | cAGE {G}EDD2 :|
K:D\
defg afdB | cdef gece | defg ~a3f | geeg fddf |
afdf ~a3f | gece g2fe | defa ~a3f | geag fddc :|
